!!!!SEGMENT: pl-kk--kk-i-111--002-001_anonim--deo-gratias-de-clasis-1mum.krn
!!!cenid: 18xx:2555
!!!COM: Anonim
!!!COM-rismID: pe30004985
!!!CDT:
!!!CNT:
!!!GTL: Deo gratias
!!!OTL: de clasis 1mum
!!!OMV: 001
!!!PDT: 1824
!!!AGN: Sacred
!!!SMS-siglum: PL-Kk
!!!SMS-shelfmark: Kk.I.111
!!!SMS-shelfwork: 002-001 G
!!!SMS-variant:
!!!SMS-altvar:
!!!NIFC-rismSourceID: 1001157669
!!!NIFC-islandoraID: pl-kk:3371
!!!URL-pdf-islandora: https://repozytorium.nifc.pl/islandora/object/pl-kk%3A3371/datastream/PDF/view
!!!URL-scan: https://polish.musicsources.pl/pl/lokalizacje/galeria/rekopisy/5747 @EN{Scan on Polish Music Sources Website} @PL{Skany w portalu Dziedzictwo Muzyki Polskiej w otwartym dostępie}
!!!ONB-nifc: UWAGA: A, T1, T2. Podział na poszególne Deo gratias. A: skan 0001 (m.in)
!!!AIN: 1 alto 2 tenor
!!!key:
**kern	**text	**kern	**text	**kern	**text
*part3	*part3	*part2	*part2	*part1	*part1
*staff3	*staff3	*staff2	*staff2	*staff1	*staff1
*Itenor	*	*Itenor	*	*Ialto	*
*I"Tenore Vagante.	*	*I"Tenore Chorale.	*	*I"Alto.	*
*I'T 2	*	*I'T 1	*	*I'A	*
*clefC4	*	*clefC4	*	*clefC3	*
*k[]	*	*k[]	*	*k[]	*
*G:	*	*G:	*	*G:	*
*M2/1	*	*M2/1	*	*M2/1	*
*met(C|)	*	*met(C|)	*	*met(C|)	*
=1-	=1-	=1-	=1-	=1-	=1-
*all\right	*	*all\right	*	*all\right	*
!LO:TX:t=P:problem=kreska pseudotaktowa	!	!LO:TX:t=P:problem=kreska pseudotaktowa	!	!LO:TX:t=P:problem=kreska pseudotaktowa	!
1B\	De-	1G/	De-	1d\	De-
*	*	*	*	*2\right	*
!LO:TX:t=P:problem=kreska pseudotaktowa	!	!LO:TX:t=P:problem=kreska pseudotaktowa	!	!LO:TX:t=P:problem=2\right&colon; global	!
1c\	.	1A\	.	2e\	-o
!	!	!	!	!LO:TX:t=P:problem=kreska pseudotaktowa	!
.	.	.	.	2d\	.
=2-	=2-	=2-	=2-	=2-	=2-
*2\right	*	*	*	*	*
!	!	!LO:TX:t=P:problem=kreska pseudotaktowa	!	!	!
2B\	-o	1Bn\	.	2d\	gra-
!	!	!	!	!LO:TX:t=P:problem=kreska pseudotaktowa	!
1G/	gra-	.	.	2fn\	.
!	!	!LO:TX:t=P:problem=kreska pseudotaktowa	!	!	!
.	.	1c\	-o	2g\	.
!LO:TX:t=P:problem=kreska pseudotaktowa	!	!	!	!LO:TX:t=P:problem=kreska pseudotaktowa	!
2A\	.	.	.	2fn\	.
=3-	=3-	=3-	=3-	=3-	=3-
!	!	!LO:TX:t=P:problem=kreska pseudotaktowa	!	!	!
2B\	.	1B\	.	2d\	.
!LO:TX:t=P:problem=kreska pseudotaktowa	!	!	!	!	!
2d\	.	.	.	1g\	.
!	!	!LO:TX:t=P:problem=kreska pseudotaktowa	!	!	!
2e\	.	1A\	.	.	.
!LO:TX:t=P:problem=kreska pseudotaktowa	!	!	!	!LO:TX:t=P:problem=kreska pseudotaktowa	!
2d\	.	.	.	2f#X\	-ti-
=4-	=4-	=4-	=4-	=4-	=4-
!	!	!LO:TX:t=P:problem=kreska pseudotaktowa	!	!	!
2d\	.	1G/	.	2g\	-as
!LO:TX:t=P:problem=kreska pseudotaktowa	!	!	!	!LO:TX:t=P:problem=kreska pseudotaktowa	!
2B\	.	.	.	2g\	De-
!	!	!LO:TX:t=P:problem=kreska pseudotaktowa	!	!	!
2A\	.	1A\	.	2d\	-o
!LO:TX:t=P:problem=kreska pseudotaktowa	!	!	!	!LO:TX:t=P:problem=kreska pseudotaktowa	!
2d\	.	.	.	2f#X\	.
=5-	=5-	=5-	=5-	=5-	=5-
!	!	!LO:TX:t=P:problem=kreska pseudotaktowa	!	!	!
2B\	.	1B\	.	2g\	gra-
!LO:TX:t=P:problem=kreska pseudotaktowa	!	!	!	!LO:TX:t=P:problem=kreska pseudotaktowa	!
2d\	-ti-	.	.	2d\	.
!	!	!LO:TX:t=P:problem=kreska pseudotaktowa	!	!	!
2G\	-as	1E/	.	2e\	.
!	!	!	!	!LO:TX:t=P:problem=kreska pseudotaktowa	!
1A\	De-	.	.	2c\	.
=6-	=6-	=6-	=6-	=6-	=6-
!	!	!LO:TX:t=P:problem=kreska pseudotaktowa	!	!LO:TX:t=P:problem=kreska pseudotaktowa	!
.	.	1F/	.	1d\	.
!LO:TX:t=P:problem=kreska pseudotaktowa	!	!	!	!	!
2B\	.	.	.	.	.
!	!	!LO:TX:t=P:problem=kreska pseudotaktowa	!	!	!
2G\	-o	1E/	.	2e\	.
!	!	!	!	!LO:TX:t=P:problem=kreska pseudotaktowa	!
1c\	.	.	.	2g\	.
=7-	=7-	=7-	=7-	=7-	=7-
!	!	!LO:TX:t=P:problem=kreska pseudotaktowa	!	!	!
.	.	1D/	.	2a\	.
!LO:TX:t=P:problem=kreska pseudotaktowa	!	!	!	!LO:TX:t=P:problem=kreska pseudotaktowa	!
2B\	.	.	.	2g\	-ti-
!	!	!LO:TX:t=P:problem=kreska pseudotaktowa	!	!LO:TX:t=P:problem=kreska pseudotaktowa	!
2c\	gra-	1C/	.	1g\	-as
!LO:TX:t=P:problem=kreska pseudotaktowa	!	!	!	!	!
2e\	.	.	.	.	.
!	!	!	!	!LO:LB:g=original	!
=8-	=8-	=8-	=8-	=8-	=8-
!	!	!LO:TX:t=P:problem=kreska pseudotaktowa	!	!	!
2d\	.	1G/	gra-	2r	.
!LO:TX:t=P:problem=kreska pseudotaktowa	!	!	!	!LO:TX:t=P:problem=kreska pseudotaktowa	!
2B\	-ti-	.	.	2g\	De-
!	!	!LO:TX:t=P:problem=kreska pseudotaktowa	!	!	!
2A\	-as	1A\	.	2c\	-o
!LO:TX:t=P:problem=kreska pseudotaktowa	!	!	!	!LO:TX:t=P:problem=kreska pseudotaktowa	!
2c\	De-	.	.	2e\	.
!LO:LB:g=original	!	!	!	!	!
=9-	=9-	=9-	=9-	=9-	=9-
!LO:TX:t=P:problem=kreska pseudotaktowa	!	!LO:TX:t=P:problem=kreska pseudotaktowa	!	!	!
1d\	-o	1B\	.	2fny\	gra-
.	.	.	.	1g\	.
!	!	!LO:TX:t=P:problem=kreska pseudotaktowa	!	!	!
2e\	gra-	1c\	.	.	.
1f\	.	.	.	1a\	.
=10-	=10-	=10-	=10-	=10-	=10-
!	!	!LO:TX:t=P:problem=kreska pseudotaktowa	!	!	!
.	.	1Bn\	.	.	.
1e\	.	.	.	1g\	.
!	!	!LO:TX:t=P:problem=kreska pseudotaktowa	!	!	!
.	.	1A\	.	.	.
1d\	.	.	.	1fn\	.
=11-	=11-	=11-	=11-	=11-	=11-
!	!	!LO:TX:t=P:problem=kreska pseudotaktowa	!	!	!
.	.	1G/	.	.	.
!	!	!	!	!LO:TX:t=P:problem=kreska pseudotaktowa	!
1c\	.	.	.	2e\	.
!	!	!LO:LB:g=original	!	!	!
!	!	!LO:TX:t=P:problem=kreska pseudotaktowa	!	!	!
.	.	1A\	.	1.f\	-ti-
!LO:TX:t=P:problem=kreska pseudotaktowa	!	!	!	!	!
2c\	-ti-	.	.	.	.
=12-	=12-	=12-	=12-	=12-	=12-
!	!	!LO:TX:t=P:problem=kreska pseudotaktowa	!	!	!
2d\	-as	1G/	.	.	.
!LO:TX:t=P:problem=kreska pseudotaktowa	!	!	!	!LO:TX:t=P:problem=kreska pseudotaktowa	!
2c\	De-	.	.	2e\	.
!	!	!LO:TX:t=P:problem=kreska pseudotaktowa	!	!	!
2c\	-o	1F/	.	2f\	-as
!LO:TX:t=P:problem=kreska pseudotaktowa	!	!	!	!LO:TX:t=P:problem=kreska pseudotaktowa	!
2d\	.	.	.	2a\	De-
=13-	=13-	=13-	=13-	=13-	=13-
!	!	!LO:TX:t=P:problem=kreska pseudotaktowa	!	!	!
2e\	gra-	1E/	.	2e\	-o
!	!	!	!	!LO:TX:t=P:problem=kreska pseudotaktowa	!
4c\	.	.	.	2g\	.
!LO:TX:t=P:problem=kreska pseudotaktowa	!	!	!	!	!
4B\	.	.	.	.	.
2.A\	.	2.F#X/	.	2.d\	gra-
!LO:TX:t=P:problem=kreska pseudotaktowa	!	!LO:TX:t=P:problem=kreska pseudotaktowa	!	!LO:TX:t=P:problem=kreska pseudotaktowa	!
4A\	-ti-	4F#/	-ti-	4d\	-ti-
=14-	=14-	=14-	=14-	=14-	=14-
0B\;	-as.	0G/;	-as.	0d\;<	-as.
==	==	==	==	==	==
*-	*-	*-	*-	*-	*-
!!!system-decoration: [(s1,s2,s3)]
!!!RDF**kern: < = below
!!!EED: Andrzej Borzym
!!!EEV: 2021-08-04
!!!ENC: Tomasz Grochalski
!!!END: 2021-07-09
!!!YEC: Copyright 2022 Narodowy Instytut Fryderyka Chopina (https://polishscores.org)
!!!YEM: Licence CC BY 4.0 (https://creativecommons.org/licenses/by/4.0)
